T: Blue-eyed Lassie, The
M: 4/4
L: 1/8
K: Dmaj
DFAF BFAd|DFAF BE~E2|DFAF BFAd|faAc ed~d2:|dffd ceAc|d2AF GFED|A,D (3DDD A,DFA|fade feef|~a3f gfef|edfd edfd|ADFA EAFA|faAc ed~d2||
